X:49
T:Rylands Humour
M:C |
L:1/8
B:Thompson's Compleat Collection of 200 Favourite Country Dances, vol. 2 (London, 1765)
Z:Transcribed and edited by Flynn Titford-Mock, 2007
Z:abc's:AK/Fiddler's Companion
K:G
GABc d2g2 | fafd ecBA | GABc d2g2 | faf^c d2D2 :|
|: dedB cdcA | BdBG AFED | G>DEF G2c2 | BdAF G2 [G,2G2] :|

